X:1
T:Starry Night for a Ramble
L:1/8
M:6/8
I:linebreak $
K:D
V:1 treble
V:1
 g |:"D" f2 d A2 F |"G" G3 B2 B |"D" A2 d c2 d |"A" e3 efg |"D" fed A2 F | G3 BcB | A2 d "A"c2 e |$
  |1 "D" d3 d2 g :|2"D"  d3 d2 f |:"G"  g2 g gfe |"D" f2 f fed |"Em" e2 e efg |"A" a3 a2 f |"G" gag gfe |$
"D"  fgf fed |1"Em" efe efg |"A"  a3 a2 f :|2"Em" efe efg |"A" a3 a2 g :|["final ending" "Em" efe "A"edc |"D"  d6 |]
